X: 1
T:Jacky Stewarts reel
T:the Dead Cow
M:2/4
L:1/8
N:Known in Scotland  Donegal as The Highlander Kissed his Granny (Mother), etc
K:G
cg-ge | gc ge | cg-ge | dB GB | \
cg-ge | gc ge | af ge | dB GB :|
|: ce Ae | ce Ae | ce Ae | d/c/B/A/ GB | \
ce Ae | ce Ae | af ge | dB GB :|
